assets/icons/event/Date.svg

<svg width="48" height="48" viewBox="0 0 48 48" fill="none" xmlns="http://www.w3.org/2000/svg">
<rect opacity="0.1" width="48" height="48" rx="12" fill="url(#paint0_linear_3_932)"/>
<path opacity="0.4" fill-rule="evenodd" clip-rule="evenodd" d="M20.1838 15.352H27.8621V13.5642H20.1838V15.352ZM18.4371 13.6376V13.6465C17.8377 13.701 17.2447 13.8201 16.6679 13.9992V13.9925C16.6507 13.9997 16.6346 14.0053 16.6191 14.0106C16.5987 14.0176 16.5795 14.0242 16.5606 14.0337C16.5145 14.0448 16.4695 14.0615 16.4266 14.0826C16.3001 14.1238 16.1736 14.1727 16.0545 14.2228C16.0229 14.235 15.9913 14.2492 15.9596 14.2634C15.928 14.2776 15.8964 14.2918 15.8648 14.304C15.8213 14.3246 15.776 14.3471 15.7307 14.3696C15.6854 14.3922 15.6401 14.4147 15.5967 14.4353L15.3822 14.5588C15.3426 14.579 15.3059 14.6027 15.2684 14.6269C15.2461 14.6413 15.2236 14.6559 15.2 14.67C14.8772 14.8781 14.5781 15.1217 14.3079 15.3987L14.2918 15.4154C14.2563 15.4568 14.2209 15.4969 14.1861 15.5365C14.1272 15.6034 14.0697 15.6687 14.0151 15.7358L13.999 15.7514C13.122 16.9617 12.6823 18.4536 12.7585 19.9655V20.445H14.4901V19.961C14.4901 17.854 15.1614 16.5423 16.655 15.8704C17.2254 15.629 17.828 15.4799 18.4414 15.4254H18.4574V13.6454L18.4371 13.6376ZM33.9975 15.7291L34.005 15.7447C34.881 16.9562 35.3185 18.4491 35.2413 19.961V20.445H33.5107V19.9488C33.5471 19.0566 33.3681 18.1688 32.9885 17.3667C32.6239 16.6803 32.0406 16.1474 31.3362 15.8582C30.7754 15.6167 30.1814 15.4666 29.5755 15.4132V13.6421C30.1749 13.6977 30.7679 13.8156 31.3458 13.9947V13.9858C31.3783 14.0006 31.4031 14.0093 31.4456 14.0244L31.453 14.027C31.4728 14.034 31.4912 14.041 31.5094 14.0479C31.5347 14.0575 31.5596 14.0669 31.5871 14.0759C31.7056 14.1148 31.8165 14.1607 31.9306 14.2079L31.9506 14.2161C32.0032 14.2346 32.0528 14.2575 32.0975 14.2782C32.1119 14.2849 32.1259 14.2913 32.1393 14.2973C32.2336 14.3385 32.3301 14.3874 32.4073 14.4286C32.4588 14.4553 32.509 14.4839 32.556 14.5107C32.5814 14.5252 32.606 14.5392 32.6293 14.5521C32.6677 14.5733 32.7011 14.596 32.7332 14.6178C32.7567 14.6338 32.7795 14.6493 32.803 14.6633C33.1268 14.8725 33.4292 15.1172 33.7026 15.392L33.7123 15.4087C33.813 15.5099 33.9085 15.6167 33.9975 15.7291Z" fill="url(#paint1_linear_3_932)"/>
<path d="M29.625 12.3962V16.3356C29.625 16.8319 29.2222 17.234 28.725 17.234C28.2277 17.234 27.825 16.8319 27.825 16.3356V12.4051C27.8205 11.9088 28.221 11.5034 28.7182 11.5C29.2155 11.4967 29.6216 11.8953 29.625 12.3917V12.3962Z" fill="url(#paint2_linear_3_932)"/>
<path d="M20.175 12.4104V16.34C20.175 16.8386 19.7718 17.2428 19.2744 17.2428C18.7771 17.2428 18.375 16.8386 18.375 16.34V12.4104C18.375 11.9119 18.7771 11.5088 19.2744 11.5088C19.7718 11.5088 20.175 11.9119 20.175 12.4104Z" fill="url(#paint3_linear_3_932)"/>
<path fill-rule="evenodd" clip-rule="evenodd" d="M12.75 30.1376V20.4448H35.25V30.1376C35.25 34.3644 32.8895 36.4999 28.2114 36.4999H19.7779C15.1105 36.4999 12.75 34.3644 12.75 30.1376ZM17.8251 25.8334C17.8251 26.4198 18.2865 26.8956 18.8552 26.8956C19.4346 26.8956 19.8959 26.4088 19.8852 25.8223C19.8852 25.2359 19.4238 24.7601 18.8659 24.7601H18.8552C18.2865 24.7601 17.8251 25.247 17.8251 25.8334ZM22.9646 25.8334C22.9646 26.4198 23.4367 26.8956 24.0054 26.8956C24.574 26.8956 25.0354 26.4198 25.0354 25.8223C25.0354 25.247 24.574 24.7712 24.0054 24.7601H23.9946C23.426 24.7712 22.9646 25.247 22.9646 25.8334ZM29.1449 26.8956C28.5762 26.8956 28.1148 26.4198 28.1148 25.8334C28.1148 25.247 28.5655 24.7712 29.1449 24.7712C29.7135 24.7712 30.1749 25.247 30.1749 25.8334C30.1749 26.4198 29.7135 26.8956 29.1449 26.8956ZM29.1449 31.4322C28.5762 31.4322 28.1148 30.9564 28.1041 30.37C28.1041 29.7836 28.5655 29.3078 29.1341 29.3078H29.1449C29.7135 29.3078 30.1749 29.7836 30.1749 30.37C30.1749 30.9564 29.7135 31.4322 29.1449 31.4322ZM24.0054 31.4322C23.4367 31.4322 22.9646 30.9564 22.9646 30.37C22.9646 29.7836 23.426 29.3078 23.9946 29.2967H24.0054C24.574 29.3078 25.0247 29.7836 25.0354 30.3589C25.0354 30.9564 24.574 31.4322 24.0054 31.4322ZM18.8552 31.4322C18.2865 31.4322 17.8251 30.9564 17.8251 30.37C17.8144 29.7836 18.2758 29.2967 18.8552 29.2967C19.4238 29.2967 19.8852 29.7725 19.8852 30.3589C19.8852 30.9454 19.4238 31.4322 18.8552 31.4322Z" fill="url(#paint4_linear_3_932)"/>
<defs>
<linearGradient id="paint0_linear_3_932" x1="-9.38745" y1="24" x2="49.2399" y2="24" gradientUnits="userSpaceOnUse">
<stop stop-color="#8301BC"/>
<stop offset="1" stop-color="#D2286A"/>
</linearGradient>
<linearGradient id="paint1_linear_3_932" x1="8.34963" y1="17.0046" x2="35.8312" y2="17.0046" gradientUnits="userSpaceOnUse">
<stop stop-color="#8301BC"/>
<stop offset="1" stop-color="#D2286A"/>
</linearGradient>
<linearGradient id="paint2_linear_3_932" x1="27.4729" y1="14.367" x2="29.6715" y2="14.367" gradientUnits="userSpaceOnUse">
<stop stop-color="#8301BC"/>
<stop offset="1" stop-color="#D2286A"/>
</linearGradient>
<linearGradient id="paint3_linear_3_932" x1="18.023" y1="14.3758" x2="20.2215" y2="14.3758" gradientUnits="userSpaceOnUse">
<stop stop-color="#8301BC"/>
<stop offset="1" stop-color="#D2286A"/>
</linearGradient>
<linearGradient id="paint4_linear_3_932" x1="8.34963" y1="28.4724" x2="35.8312" y2="28.4724" gradientUnits="userSpaceOnUse">
<stop stop-color="#8301BC"/>
<stop offset="1" stop-color="#D2286A"/>
</linearGradient>
</defs>
</svg>

<svg fill="none" height="48" width="48" xmlns="http://www.w3.org/2000/svg" xmlns:xlink="http://www.w3.org/1999/xlink"><linearGradient id="a"><stop offset="0" stop-color="#8301bc"/><stop offset="1" stop-color="#d2286a"/></linearGradient><linearGradient id="b" gradientUnits="userSpaceOnUse" x1="-9.387" x2="49.24" xlink:href="#a" y1="24" y2="24"/><linearGradient id="c" gradientUnits="userSpaceOnUse" x1="8.35" x2="35.831" xlink:href="#a" y1="17.005" y2="17.005"/><linearGradient id="d" gradientUnits="userSpaceOnUse" x1="27.473" x2="29.672" xlink:href="#a" y1="14.367" y2="14.367"/><linearGradient id="e" gradientUnits="userSpaceOnUse" x1="18.023" x2="20.221" xlink:href="#a" y1="14.376" y2="14.376"/><linearGradient id="f" gradientUnits="userSpaceOnUse" x1="8.35" x2="35.831" xlink:href="#a" y1="28.472" y2="28.472"/><rect fill="url(#b)" height="48" opacity=".1" rx="12" width="48"/><path clip-rule="evenodd" d="m20.184 15.352h7.678v-1.788h-7.678zm-1.747-1.714v.008c-.6.055-1.192.174-1.77.353v-.007a.758.758 0 0 1 -.048.019.459.459 0 0 0 -.058.023.648.648 0 0 0 -.134.049 4.82 4.82 0 0 0 -.372.14c-.032.012-.064.026-.095.04-.032.015-.064.029-.095.041-.044.02-.089.043-.134.066-.046.022-.09.045-.134.065l-.215.124c-.04.02-.076.044-.114.068l-.068.043a5.121 5.121 0 0 0 -.892.729l-.016.016-.106.122c-.059.066-.116.132-.17.199l-.017.015a6.623 6.623 0 0 0 -1.24 4.214v.48h1.731v-.484c0-2.107.671-3.419 2.165-4.09a5.928 5.928 0 0 1 1.786-.446h.016v-1.78zm15.56 2.091.008.016a6.628 6.628 0 0 1 1.236 4.216v.484h-1.73v-.496a5.515 5.515 0 0 0 -.523-2.582 3.292 3.292 0 0 0 -1.652-1.509 5.72 5.72 0 0 0 -1.76-.445v-1.77a8.69 8.69 0 0 1 1.77.352v-.01c.032.016.057.024.1.04l.007.002.056.02c.026.01.05.02.078.029.119.039.23.085.344.132l.02.008a1.661 1.661 0 0 1 .188.081 3.942 3.942 0 0 1 .417.214l.073.041c.039.021.072.044.104.066l.07.045c.324.21.626.454.9.729l.01.017c.1.1.195.208.285.32z" fill="url(#c)" fill-rule="evenodd" opacity=".4"/><path d="m29.625 12.396v3.94a.899.899 0 0 1 -1.8 0v-3.93a.9.9 0 0 1 1.8-.013z" fill="url(#d)"/><path d="m20.175 12.41v3.93a.9.9 0 1 1 -1.8 0v-3.93a.9.9 0 1 1 1.8 0z" fill="url(#e)"/><path clip-rule="evenodd" d="m12.75 30.138v-9.693h22.5v9.693c0 4.226-2.36 6.362-7.039 6.362h-8.433c-4.667 0-7.028-2.136-7.028-6.362zm5.075-4.305c0 .587.462 1.063 1.03 1.063.58 0 1.04-.487 1.03-1.074 0-.586-.461-1.062-1.02-1.062h-.01c-.569 0-1.03.487-1.03 1.073zm5.14 0c0 .587.472 1.063 1.04 1.063.569 0 1.03-.476 1.03-1.074 0-.575-.461-1.05-1.03-1.062h-.01a1.064 1.064 0 0 0 -1.03 1.073zm6.18 1.063c-.569 0-1.03-.476-1.03-1.063 0-.586.45-1.062 1.03-1.062.569 0 1.03.476 1.03 1.062 0 .587-.462 1.063-1.03 1.063zm0 4.536c-.569 0-1.03-.476-1.04-1.062 0-.586.46-1.062 1.03-1.062h.01c.569 0 1.03.476 1.03 1.062s-.462 1.062-1.03 1.062zm-5.14 0c-.568 0-1.04-.476-1.04-1.062s.461-1.062 1.03-1.073h.01c.569.01 1.02.487 1.03 1.062 0 .597-.461 1.073-1.03 1.073zm-5.15 0c-.569 0-1.03-.476-1.03-1.062a1.043 1.043 0 0 1 1.03-1.073c.569 0 1.03.476 1.03 1.062s-.461 1.073-1.03 1.073z" fill="url(#f)" fill-rule="evenodd"/></svg>
